public/svgs/aboutus/letter8.svg

<svg width="26" height="27" viewBox="0 0 26 27" fill="none" xmlns="http://www.w3.org/2000/svg">
<g filter="url(#filter0_d_3766_1924)">
<path d="M17.3831 16.4028C18.2037 15.7412 19.0595 15.1781 19.9914 14.6862C19.9974 14.7017 20.0038 14.7171 20.0107 14.7326C20.0486 14.8194 20.1653 15.0838 20.4051 15.1358C20.6177 15.182 20.8677 15.0369 20.9775 14.876C21.3499 14.3288 21.5755 13.7118 21.7744 13.1674L21.7994 13.0991C21.8052 13.0833 21.809 13.0671 21.811 13.051C21.8213 12.9663 21.781 12.8814 21.7047 12.837L21.6418 12.8004C21.6161 12.7856 21.5941 12.7723 21.5737 12.7602C21.5318 12.7351 21.4922 12.7114 21.449 12.6895C20.8728 12.3989 20.3071 12.019 19.6159 11.4575C17.9959 10.1421 16.6029 8.52377 15.3576 6.51017C15.0551 6.02079 14.7781 5.49808 14.5103 4.99258C14.3978 4.77958 14.2809 4.55925 14.1631 4.34303C14.1299 4.28178 14.0739 4.17922 13.9754 4.10508C13.8372 4.00112 13.6659 3.98934 13.4935 4.07199C13.3449 4.14322 13.2491 4.27135 13.2305 4.42351C13.2154 4.54648 13.2526 4.65272 13.2773 4.72299L13.3243 4.85698C13.4059 5.08955 13.4902 5.32989 13.5784 5.566C14.2164 7.27489 15.0354 8.83119 16.0118 10.1916C16.9691 11.5257 18.1087 12.7137 19.4019 13.7267C19.308 13.7687 19.2137 13.8104 19.1204 13.8504C17.6297 14.4875 16.2605 15.3001 15.0509 16.2658C13.8292 17.2412 12.7364 18.4001 11.8021 19.7101C11.6078 19.9823 11.5207 20.1607 11.5005 20.326C11.4777 20.5116 11.5395 20.6715 11.6849 20.8015C11.7905 20.8961 11.9268 20.9651 12.0845 21.0451L12.0903 21.048C12.3476 21.1783 12.465 21.3336 12.4836 21.5672C12.4936 21.6963 12.558 21.795 12.6007 21.8604C12.6118 21.877 12.6228 21.8941 12.6281 21.9044L12.6519 21.9495C12.6884 22.0189 12.76 22.0632 12.8384 22.0653L12.8894 22.0666L12.9156 22.0673L12.9805 22.069L13.0372 22.0705C13.1235 22.0728 13.2026 22.0237 13.2393 21.9457L13.2635 21.8943C13.8164 20.7163 14.3208 19.7521 14.9868 18.8753C15.6898 17.9496 16.4964 17.1178 17.3831 16.4028Z" fill="black"/>
<path d="M5.49155 11.6066C5.25936 11.4423 4.9882 11.4495 4.76671 11.626C4.54188 11.8046 4.39133 12.0873 4.35284 12.4011C4.30691 12.7757 4.42341 13.1417 4.66444 13.3802C4.71125 13.4264 4.75823 13.4678 4.80362 13.5077L4.83477 13.5354C6.4029 14.9276 8.04131 16.1604 9.70396 17.199C10.1362 17.4691 10.1963 17.642 10.2298 17.8398C10.2868 18.1772 10.4518 18.3121 10.5803 18.3658C10.7742 18.4469 10.9981 18.4 11.246 18.2264C11.4694 18.0701 11.6719 17.8951 11.9072 17.6805C12.1308 17.4764 12.3044 17.302 12.3327 17.0716C12.3646 16.811 12.2052 16.6021 11.9931 16.356C11.9016 16.2498 11.8785 16.167 11.8972 16.0151L11.8977 16.0107C12.009 15.1313 12.1186 14.2411 12.2112 13.4864L12.2118 13.4811L12.3047 12.7238L12.3975 11.9666C12.4446 11.5823 12.4918 11.1981 12.5393 10.8137L12.571 10.559C12.6794 9.68213 12.7919 8.77549 12.9153 7.88628C12.9556 7.59382 13.0139 7.30042 13.0751 6.98977C13.1045 6.84271 13.1346 6.69061 13.1635 6.53291L13.1849 6.41902C13.1859 6.41464 13.1864 6.4102 13.187 6.40576C13.1947 6.34281 13.1745 6.27941 13.1313 6.23243C13.0849 6.1821 13.0177 6.15653 12.9499 6.1634L12.8343 6.17499L12.2547 6.23341L12.1409 6.24487L12.0665 6.25241C11.9651 6.26263 11.885 6.34194 11.8727 6.44177C11.8721 6.44724 11.8718 6.45281 11.8711 6.45837L11.8681 6.5333C11.8285 7.39081 11.7355 8.22081 11.6586 8.84807C11.6158 9.19694 11.5694 9.55066 11.5244 9.89266C11.4794 10.2342 11.4331 10.5873 11.3904 10.9355C11.3735 11.0733 11.3583 11.2009 11.3443 11.3255C11.2806 11.8776 11.2097 12.4698 11.1215 13.1892C11.0622 13.6726 11.0018 14.1577 10.9415 14.6465C10.898 14.9941 10.8547 15.3432 10.8112 15.6947C9.0122 14.5875 7.34342 13.3135 5.85082 11.908C5.75086 11.8138 5.6296 11.7042 5.49155 11.6066Z" fill="black"/>
<path d="M14.3765 9.24916L13.8781 9.31981L13.81 9.32939C13.7125 9.3432 13.637 9.4207 13.6251 9.51782C13.6248 9.52002 13.6245 9.52222 13.6247 9.52442L13.6181 9.59276C13.6009 9.77876 13.5855 9.96182 13.5699 10.1388C13.5371 10.524 13.5056 10.8877 13.4631 11.2522C13.4066 11.7311 13.3439 12.2528 13.2653 12.8938C13.222 13.2468 13.1783 13.5998 13.135 13.9529L13.1339 13.9617L13.1334 13.9661C13.0895 14.3208 13.0455 14.6755 13.002 15.0302L12.9884 15.1413L12.9865 15.1568L12.9677 15.3105L12.9488 15.4646C12.9269 15.6433 12.9037 15.8355 12.8836 16.032C12.8824 16.0413 12.8813 16.0509 12.8805 16.0607C12.873 16.1257 12.8602 16.2333 12.8866 16.3427C12.9261 16.5054 13.0376 16.6199 13.2005 16.6649C13.3993 16.7199 13.6604 16.659 13.8078 16.5234C14.1503 16.2088 14.4853 15.8626 14.7547 15.5844C14.8593 15.4766 14.9207 15.3539 14.9372 15.2195C14.9579 15.0505 14.9043 14.8815 14.7815 14.7308L14.7337 14.6714C14.6187 14.5291 14.4994 14.3818 14.3593 14.2471C14.2671 14.1581 14.2406 14.0881 14.2551 13.9701C14.2562 13.9616 14.2572 13.953 14.2587 13.9443C14.2829 13.7972 14.3055 13.6376 14.3295 13.4418C14.3431 13.3307 14.3559 13.2195 14.3687 13.1082C14.3814 12.9975 14.3939 12.8884 14.4072 12.7794C14.4149 12.717 14.4225 12.6547 14.431 12.5924C14.4428 12.5034 14.4553 12.4092 14.4681 12.3045C14.4869 12.1515 14.5045 11.9967 14.522 11.8471C14.5391 11.6972 14.5566 11.5439 14.575 11.3938C14.6395 10.8676 14.7208 10.3046 14.8772 9.75279C14.8827 9.73261 14.8871 9.71162 14.8897 9.69029C14.8965 9.63428 14.8911 9.58551 14.8876 9.54992C14.8862 9.53693 14.8846 9.52462 14.8845 9.51511L14.8805 9.41911C14.878 9.35779 14.8496 9.30038 14.8028 9.2611C14.7556 9.22181 14.6939 9.20427 14.6333 9.2129L14.5381 9.22633L14.3765 9.24916Z" fill="black"/>
</g>
<defs>
<filter id="filter0_d_3766_1924" x="0.34375" y="0.0175476" width="25.4688" height="26.053" filterUnits="userSpaceOnUse" color-interpolation-filters="sRGB">
<feFlood flood-opacity="0" result="BackgroundImageFix"/>
<feColorMatrix in="SourceAlpha" type="matrix" values="0 0 0 0 0 0 0 0 0 0 0 0 0 0 0 0 0 0 127 0" result="hardAlpha"/>
<feOffset/>
<feGaussianBlur stdDeviation="2"/>
<feComposite in2="hardAlpha" operator="out"/>
<feColorMatrix type="matrix" values="0 0 0 0 0.94902 0 0 0 0 0.866667 0 0 0 0 0.486275 0 0 0 1 0"/>
<feBlend mode="normal" in2="BackgroundImageFix" result="effect1_dropShadow_3766_1924"/>
<feBlend mode="normal" in="SourceGraphic" in2="effect1_dropShadow_3766_1924" result="shape"/>
</filter>
</defs>
</svg>

<svg xmlns="http://www.w3.org/2000/svg" width="26" height="27" fill="none" viewBox="0 0 26 27"><g fill="#000" filter="url(#a)"><path d="M17.383 16.403a16 16 0 0 1 2.608-1.717l.02.047c.038.086.154.35.394.403.213.046.463-.1.572-.26.373-.547.599-1.164.797-1.709l.025-.068a.22.22 0 0 0-.094-.262l-.063-.037q-.039-.021-.068-.04a2 2 0 0 0-.125-.07c-.576-.291-1.142-.671-1.833-1.232-1.62-1.316-3.013-2.934-4.258-4.948-.303-.49-.58-1.012-.848-1.517-.112-.213-.23-.434-.347-.65a.7.7 0 0 0-.188-.238.45.45 0 0 0-.482-.033.45.45 0 0 0-.263.352.65.65 0 0 0 .047.299l.047.134c.082.233.166.473.254.709.638 1.709 1.457 3.265 2.434 4.626a17.3 17.3 0 0 0 3.39 3.535l-.282.123c-1.49.638-2.86 1.45-4.07 2.416a17 17 0 0 0-3.248 3.444c-.194.272-.281.45-.301.616a.52.52 0 0 0 .184.476c.105.094.242.163.4.243l.005.003c.258.13.375.286.394.52.01.128.074.227.117.292l.027.044.024.046a.22.22 0 0 0 .186.115l.051.002h.027l.064.002.057.002a.22.22 0 0 0 .202-.125l.024-.052c.553-1.178 1.058-2.142 1.724-3.019a14.2 14.2 0 0 1 2.396-2.472"/><path d="M5.492 11.607a.58.58 0 0 0-.725.019 1.17 1.17 0 0 0-.414.775c-.046.375.07.74.311.98q.07.067.14.127l.03.027a36.5 36.5 0 0 0 4.87 3.664c.432.27.492.443.526.64.057.338.222.473.35.527q.293.12.666-.14c.223-.156.426-.33.661-.546.224-.204.397-.378.426-.608.032-.261-.128-.47-.34-.716-.091-.106-.114-.189-.096-.34v-.005c.112-.88.222-1.77.314-2.525v-.005l.094-.757.093-.757.141-1.153.032-.255c.108-.877.22-1.784.344-2.673.04-.292.099-.586.16-.896q.045-.221.089-.457l.02-.114.003-.013a.217.217 0 0 0-.237-.243l-.116.012-.58.058-.113.012-.075.007a.22.22 0 0 0-.193.19l-.002.016-.003.075a31 31 0 0 1-.21 2.315c-.042.349-.089.703-.134 1.045a118 118 0 0 0-.18 1.432c-.063.553-.134 1.145-.223 1.864l-.18 1.457-.13 1.049a30.8 30.8 0 0 1-4.96-3.787 3 3 0 0 0-.36-.301m8.886-2.357-.499.07-.068.01a.22.22 0 0 0-.185.188v.006l-.007.069-.048.546c-.033.385-.064.749-.107 1.113-.056.48-.12 1-.198 1.642l-.13 1.059-.001.009v.004l-.132 1.064-.014.111-.002.016-.018.153-.02.155a29 29 0 0 0-.068.596c-.007.065-.02.172.007.282.04.162.15.277.313.322a.7.7 0 0 0 .608-.142c.342-.314.677-.66.947-.939a.63.63 0 0 0 .182-.364.64.64 0 0 0-.155-.49l-.048-.059a5 5 0 0 0-.375-.424c-.092-.089-.118-.159-.104-.277l.004-.026c.024-.147.046-.306.07-.502l.04-.334.038-.329.024-.187.037-.287.054-.458.053-.453c.065-.526.146-1.09.302-1.641a.4.4 0 0 0 .013-.063c.006-.056.001-.104-.002-.14l-.004-.035-.004-.096a.22.22 0 0 0-.247-.206l-.095.013z"/></g><defs><filter id="a" width="25.469" height="26.053" x=".344" y=".018" color-interpolation-filters="sRGB" filterUnits="userSpaceOnUse"><feFlood flood-opacity="0" result="BackgroundImageFix"/><feColorMatrix in="SourceAlpha" result="hardAlpha" values="0 0 0 0 0 0 0 0 0 0 0 0 0 0 0 0 0 0 127 0"/><feOffset/><feGaussianBlur stdDeviation="2"/><feComposite in2="hardAlpha" operator="out"/><feColorMatrix values="0 0 0 0 0.94902 0 0 0 0 0.866667 0 0 0 0 0.486275 0 0 0 1 0"/><feBlend in2="BackgroundImageFix" result="effect1_dropShadow_3766_1924"/><feBlend in="SourceGraphic" in2="effect1_dropShadow_3766_1924" result="shape"/></filter></defs></svg>
